X:4
T:Polska fr{\aa}n Enviken
R:polska J
A:Enviken, Dalarna
Z:id:hn-jp-4
M:3/4
L:1/16
K:Gm
A2|B3B (3ABAG^F G3B|d2d2 c2Bc d3d|g3g d2d2 B2B2|B2AG G2AG ^F4|
B3B (3ABAG^F G3B|d2d2 c2Bc d3d|g3g d2d2 B2B2|A2G^F G6:|
K:G
|:B2|d3d e2e2 f3f|g2ag f2gf e2fe|d3d e2e2 f2f2|gagB d6B2|
d3d b2b2 a2a2|c3e abaf g3B|c2Bc efed cdcA|FGAF G3B d3B|
d3d b2b2 a2a2|c3e abaf g3B|c2Bc efed cdcA|FGAF G6:|

